X: 33699
T: Ranger's, The
R: hornpipe
M: 4/4
K: Bminor
|:dc|BF (3FFF BFdB|cA (3AAA cAec|(3Bcd FB cBAc|Fecd B2 dc|
BF (3FFF BFdB|cA (3AAA cAec|(3Bcd FB cBAc|d2 F2 B2:|
|:(3FGA|BFDF BEEG|BA (3Bcd c2 F2|dFeF fFeF|decd B2 dc|
BF (3FFF BFdB|cA (3AAA cAec|(3Bcd FB cBAc|d2 F2 B2:|

